public/images/icons/beta.svg

<svg width="42" height="23" viewBox="0 0 42 23" fill="none" xmlns="http://www.w3.org/2000/svg">
<path d="M0 4C0 1.79086 1.79086 0 4 0H38C40.2091 0 42 1.79086 42 4V19C42 21.2091 40.2091 23 38 23H4C1.79086 23 0 21.2091 0 19V4Z" fill="#FCF7CF"/>
<path d="M12.87 11.4C13.2767 11.4867 13.6033 11.69 13.85 12.01C14.0967 12.3233 14.22 12.6833 14.22 13.09C14.22 13.6767 14.0133 14.1433 13.6 14.49C13.1933 14.83 12.6233 15 11.89 15H8.62V7.98H11.78C12.4933 7.98 13.05 8.14333 13.45 8.47C13.8567 8.79667 14.06 9.24 14.06 9.8C14.06 10.2133 13.95 10.5567 13.73 10.83C13.5167 11.1033 13.23 11.2933 12.87 11.4ZM10.33 10.82H11.45C11.73 10.82 11.9433 10.76 12.09 10.64C12.2433 10.5133 12.32 10.33 12.32 10.09C12.32 9.85 12.2433 9.66667 12.09 9.54C11.9433 9.41333 11.73 9.35 11.45 9.35H10.33V10.82ZM11.59 13.62C11.8767 13.62 12.0967 13.5567 12.25 13.43C12.41 13.2967 12.49 13.1067 12.49 12.86C12.49 12.6133 12.4067 12.42 12.24 12.28C12.08 12.14 11.8567 12.07 11.57 12.07H10.33V13.62H11.59ZM16.9218 9.35V10.77H19.2118V12.09H16.9218V13.63H19.5118V15H15.2118V7.98H19.5118V9.35H16.9218ZM25.672 7.98V9.35H23.812V15H22.102V9.35H20.242V7.98H25.672ZM30.9002 13.76H28.2802L27.8602 15H26.0702L28.6102 7.98H30.5902L33.1302 15H31.3202L30.9002 13.76ZM30.4602 12.44L29.5902 9.87L28.7302 12.44H30.4602Z" fill="#81792D"/>
</svg>

<svg width="42" height="23" fill="none" xmlns="http://www.w3.org/2000/svg">
  <defs/>
  <path d="M0 4a4 4 0 014-4h34a4 4 0 014 4v15a4 4 0 01-4 4H4a4 4 0 01-4-4V4z" fill="#FCF7CF"/>
  <path d="M12.87 11.4a1.7 1.7 0 011.35 1.69c0 .59-.2 1.05-.62 1.4-.4.34-.98.51-1.71.51H8.62V7.98h3.16c.71 0 1.27.16 1.67.49.4.33.61.77.61 1.33a1.59 1.59 0 01-1.19 1.6zm-2.54-.58h1.12c.28 0 .5-.06.64-.18.15-.13.23-.31.23-.55 0-.24-.08-.42-.23-.55-.15-.13-.36-.19-.64-.19h-1.12v1.47zm1.26 2.8c.29 0 .5-.06.66-.19a.7.7 0 00.24-.57.72.72 0 00-.25-.58.98.98 0 00-.67-.21h-1.24v1.55h1.26zm5.33-4.27v1.42h2.3v1.32h-2.3v1.54h2.6V15h-4.3V7.98h4.3v1.37h-2.6zm8.75-1.37v1.37h-1.86V15h-1.7V9.35h-1.87V7.98h5.43zm5.23 5.78h-2.62L27.86 15h-1.79l2.54-7.02h1.98L33.13 15h-1.81l-.42-1.24zm-.44-1.32l-.87-2.57-.86 2.57h1.73z" fill="#81792D"/>
</svg>
